src/lib/packages/icons/src/assets/line/presentation-text.svg

<svg xmlns="http://www.w3.org/2000/svg" width="24" height="24" fill="none"><path fill="currentColor" d="M21 2.25H3a.75.75 0 0 0 0 1.5h.75V13c0 2.418 1.332 3.75 3.75 3.75h3.75v1.849l-2.666 1.777a.75.75 0 1 0 .832 1.248L12 19.901l2.584 1.723a.748.748 0 0 0 1.041-.208.75.75 0 0 0-.208-1.04l-2.666-1.777V16.75h3.75c2.418 0 3.75-1.332 3.75-3.75V3.75H21a.75.75 0 0 0 0-1.5ZM18.75 13c0 1.577-.673 2.25-2.25 2.25h-9c-1.577 0-2.25-.673-2.25-2.25V3.75h13.5V13ZM7.25 8A.75.75 0 0 1 8 7.25h8a.75.75 0 0 1 0 1.5H8A.75.75 0 0 1 7.25 8Zm0 3a.75.75 0 0 1 .75-.75h4a.75.75 0 0 1 0 1.5H8a.75.75 0 0 1-.75-.75Z"/></svg>

<svg width="24" height="24" viewBox="0 0 24 24" fill="none" xmlns="http://www.w3.org/2000/svg">
<path d="M21 2.25H3C2.586 2.25 2.25 2.586 2.25 3C2.25 3.414 2.586 3.75 3 3.75H3.75V13C3.75 15.418 5.082 16.75 7.5 16.75H11.25V18.599L8.58398 20.376C8.23898 20.606 8.14598 21.071 8.37598 21.416C8.60498 21.761 9.07102 21.854 9.41602 21.624L12 19.901L14.584 21.624C14.712 21.709 14.856 21.75 15 21.75C15.242 21.75 15.48 21.633 15.625 21.416C15.855 21.071 15.762 20.606 15.417 20.376L12.751 18.599V16.75H16.501C18.919 16.75 20.251 15.418 20.251 13V3.75H21C21.414 3.75 21.75 3.414 21.75 3C21.75 2.586 21.414 2.25 21 2.25ZM18.75 13C18.75 14.577 18.077 15.25 16.5 15.25H7.5C5.923 15.25 5.25 14.577 5.25 13V3.75H18.75V13ZM7.25 8C7.25 7.586 7.586 7.25 8 7.25H16C16.414 7.25 16.75 7.586 16.75 8C16.75 8.414 16.414 8.75 16 8.75H8C7.586 8.75 7.25 8.414 7.25 8ZM7.25 11C7.25 10.586 7.586 10.25 8 10.25H12C12.414 10.25 12.75 10.586 12.75 11C12.75 11.414 12.414 11.75 12 11.75H8C7.586 11.75 7.25 11.414 7.25 11Z" fill="currentColor"/>
</svg>
